X:1
T:Title
%%score { 1 | 2 }
L:1/8
M:4/4
K:Ab
V:1 treble nm="Grand Piano"
V:2 bass 
V:1
 z4 z2[Q:1/4=100] [CE]>[CE] | [CA]>[B,G] [CA]>[DB] [Ec]2 [Ec]>[Ec] | B>A A>F [CE]2 [CE]>[CE] | %3
 A>G A>B [=Dc]>[DA] [DB]>[Dc] | [EB]6 [Ge]>[Gf] | [Ge]>[Gd] [Ac]>[EB] [EA]2 [Ec]>[Fd] | %6
 [Ec]>[EB] [EA]>[EG] [DF]2 [FA]>F | E>E A>B c>A B>c |[M:3/4] [CA]6 |[M:1/4] [CE]2 | %10
[M:4/4] [CEA]2 [EAc]2 [EAc]>[DGB] [CEA]<[DEB] | [CEA]3 [A,DF] [A,CE] [CEA]3 | A2 A2 c2 AB | %13
[M:9/8] [=Dc] [DB]2- [DB] [EB]2- [EB][Ge]>[Gd] |[M:4/4] [Ac]>[Ad] [Ac]>[GB] [FA]2 [EA]>[EG] | %15
 F>B A>F [CE]2 [CE]2 | [CEA]2 [EAc]2 [EAc]>[DGB] [CEA]<[DEB] |[M:3/4] [CEA]6 |] %18
V:2
 z4 z2 [A,,A,]>[A,,A,] | [A,,E,]>[A,,E,] [A,,E,]>[A,,E,] [A,,A,]2 [A,,A,]>[A,,G,] | %2
 [D,F,D]>[D,F,D] [D,F,D]>[D,A,D] [A,,A,]2 [A,,A,]>[A,,A,] | %3
 [F,A,C]>[F,A,C] [F,A,C]>[F,A,C] [B,,A,]>[B,,A,] [B,,A,]>[B,,A,] | [E,G,]6 [E,B,]>[E,B,] | %5
 [E,B,]>[E,E] [F,E]>[G,D] [A,C]2 [A,,A,]>[A,,A,] | %6
 [A,,A,]>[B,,G,] [C,A,]>[C,A,] [D,A,]2 [D,A,]>[D,A,D] | %7
 [E,A,C]>[E,A,C] [E,A,C]>[E,A,D] [E,A,E]>[E,A,C] [E,G,D]>[E,G,E] |[M:3/4] [A,,A,]6 | %9
[M:1/4] [A,,A,]2 |[M:4/4] A,2 A,2 E,>E, E,<E, | A,,3 A,, A,, A,,3 | %12
 [F,CF]2 [F,CF]2 [F,A,F]2 [F,A,C][F,A,C] | %13
[M:9/8] [B,,A,] [B,,A,]2- [B,,A,] [E,G,]2- [E,G,][E,B,]>[E,E] | %14
[M:4/4][K:treble] [A,E]>[A,F][K:bass] [E,E]>[E,D] [F,C]2 [C,A,]>[C,A,] | %15
 [D,A,D]>[D,F,D] [D,F,D]>[D,A,D] [A,,A,]2 [A,,A,]2 | A,2 A,2 E,>E, E,<E, |[M:3/4] A,,6 |] %18

